dist/assets/images/searchResults/Vector (3).svg

<svg width="21" height="18" viewBox="0 0 21 18" fill="none" xmlns="http://www.w3.org/2000/svg">
<path id="Vector" d="M18.5349 2.41452C18.0707 1.96607 17.5195 1.61034 16.9128 1.36763C16.3061 1.12492 15.6558 1 14.9991 1C14.3424 1 13.6921 1.12492 13.0854 1.36763C12.4787 1.61034 11.9275 1.96607 11.4633 2.41452L10.4998 3.34476L9.53626 2.41452C8.5985 1.50912 7.32662 1.00047 6.00043 1.00047C4.67423 1.00047 3.40235 1.50912 2.46459 2.41452C1.52683 3.31992 1 4.5479 1 5.82833C1 7.10875 1.52683 8.33674 2.46459 9.24214L3.42808 10.1724L10.4998 17L17.5714 10.1724L18.5349 9.24214C18.9994 8.79391 19.3678 8.26171 19.6192 7.67596C19.8706 7.0902 20 6.46237 20 5.82833C20 5.19428 19.8706 4.56645 19.6192 3.9807C19.3678 3.39494 18.9994 2.86275 18.5349 2.41452V2.41452Z" stroke="#2E1AAD" stroke-linecap="round" stroke-linejoin="round"/>
</svg>

<svg width="21" height="18" fill="none" xmlns="http://www.w3.org/2000/svg"><path d="M18.535 2.415a5.014 5.014 0 00-1.622-1.047 5.155 5.155 0 00-3.828 0 5.014 5.014 0 00-1.622 1.047l-.963.93-.964-.93A5.093 5.093 0 006 1a5.093 5.093 0 00-3.535 1.415A4.745 4.745 0 001 5.828c0 1.28.527 2.509 1.465 3.414l.963.93L10.5 17l7.071-6.828.964-.93a4.82 4.82 0 001.084-1.566 4.682 4.682 0 000-3.695 4.819 4.819 0 00-1.084-1.566v0z" stroke="#2E1AAD" stroke-linecap="round" stroke-linejoin="round"/></svg>
